lib/functional/games/game-controller.svg

<svg xmlns="http://www.w3.org/2000/svg" fill="none" stroke="currentColor" aria-hidden="true" viewBox="0 0 32 32"><g id="Icon-GameController"><g clip-path="url(#clip0_11_2968)"><g id="size=md (32px)"><g id="GameController"><path id="Vector" stroke-linecap="round" stroke-linejoin="round" stroke-width="2" d="M19 13.5H23"/><path id="Vector_2" stroke-linecap="round" stroke-linejoin="round" stroke-width="2" d="M9 13.5H13"/><path id="Vector_3" stroke-linecap="round" stroke-linejoin="round" stroke-width="2" d="M11 11.5V15.5"/><path id="Vector_4" stroke-linecap="round" stroke-linejoin="round" stroke-width="2" d="M21.5001 6.96252L10.5001 7.00002C8.97224 7.00293 7.49407 7.5429 6.32412 8.52548C5.15417 9.50805 4.36691 10.8707 4.10006 12.375V12.375L2.05006 22.8875C1.91843 23.6216 2.02475 24.3786 2.35352 25.0481C2.68228 25.7175 3.2163 26.2644 3.87771 26.6091C4.53911 26.9537 5.29333 27.0781 6.03038 26.9641C6.76742 26.85 7.44877 26.5035 7.97506 25.975V25.975L13.3751 20L21.5001 19.9625C23.224 19.9625 24.8773 19.2777 26.0963 18.0587C27.3152 16.8397 28.0001 15.1864 28.0001 13.4625C28.0001 11.7386 27.3152 10.0853 26.0963 8.86633C24.8773 7.64734 23.224 6.96252 21.5001 6.96252V6.96252Z"/><path id="Vector_5" stroke-linecap="round" stroke-linejoin="round" stroke-width="2" d="M27.9 12.3375L29.95 22.8875C30.0816 23.6216 29.9753 24.3786 29.6465 25.0481C29.3178 25.7175 28.7838 26.2644 28.1224 26.6091C27.4609 26.9537 26.7067 27.0781 25.9697 26.9641C25.2326 26.85 24.5513 26.5035 24.025 25.975V25.975L18.625 19.975"/></g></g></g></g><defs><clipPath id="clip0_11_2968"><rect width="32" height="32" fill="white" rx="5"/></clipPath></defs></svg>

<svg xmlns="http://www.w3.org/2000/svg" fill="none" stroke="currentColor" aria-hidden="true" viewBox="0 0 32 32"><g stroke="#101828" stroke-linecap="round" stroke-linejoin="round" stroke-width="2" clip-path="url(#a)"><path d="M19 13.5h4m-14 0h4m-2-2v4m10.5-8.537L10.5 7a6.513 6.513 0 0 0-6.4 5.375v0L2.05 22.887a3.5 3.5 0 0 0 5.925 3.088v0l5.4-5.975 8.125-.038a6.5 6.5 0 1 0 0-13v0Z"/><path d="m27.9 12.338 2.05 10.55a3.5 3.5 0 0 1-5.925 3.087v0l-5.4-6"/></g><defs><clipPath id="a"><rect width="32" height="32" fill="#fff" rx="5"/></clipPath></defs></svg>
